res/4x3/bv.svg

<svg xmlns="http://www.w3.org/2000/svg" id="flag-icons-bv" viewBox="0 0 640 480">
  <defs>
    <clipPath id="bv-a">
      <path fill-opacity=".7" d="M0 0h640v480H0z"/>
    </clipPath>
  </defs>
  <g fill-rule="evenodd" stroke-width="1pt" clip-path="url(#bv-a)">
    <path fill="#fff" d="M-28 0h699.7v512H-28z"/>
    <path fill="#d72828" d="M-53-77.8h218.7v276.2H-53zM289.4-.6h381v199h-381zM-27.6 320h190.4v190.3H-27.6zm319.6 2.1h378.3v188.2H292z"/>
    <path fill="#003897" d="M196.7-25.4H261v535.7h-64.5z"/>
    <path fill="#003897" d="M-27.6 224.8h698v63.5h-698z"/>
  </g>
</svg>

<svg id="flag-icons-bv" xmlns="http://www.w3.org/2000/svg" xmlns:xlink="http://www.w3.org/1999/xlink" viewBox="0 0 724.7 589.8"><defs><clipPath id="clip-path" transform="translate(53 77.8)"><rect width="640" height="480" fill="none"/></clipPath></defs><title>bv</title><g clip-path="url(#clip-path)"><path d="M-28,0H671.7V512H-28Z" transform="translate(53 77.8)" fill="#fff" fill-rule="evenodd"/><path d="M-53-77.8H165.7V198.4H-53ZM289.4-.6h381v199h-381ZM-27.6,320H162.8V510.3H-27.6ZM292,322.1H670.3V510.3H292Z" transform="translate(53 77.8)" fill="#d72828" fill-rule="evenodd"/><path d="M196.7-25.4H261V510.3H196.5Z" transform="translate(53 77.8)" fill="#003897" fill-rule="evenodd"/><path d="M-27.6,224.8h698v63.5h-698Z" transform="translate(53 77.8)" fill="#003897" fill-rule="evenodd"/></g></svg>
